!!!OTL: ES LEUCHTET SCHON WIEDER
!!!ARE: Europa, Mitteleuropa, Deutschland
!!!SCT: F0168
!!!YEM: Copyright 1995, estate of Helmut Schaffrath.
**kern
*ICvox
*Ivox
*M3/4
*k[]
*C:
{8E
8G
=1
4G
8E
8G
8c
8d
=2
4e
4G}
{8A
8B
=3
4c
4d
8c
8A
=4
2G}
{8E
8G
=5
4G
4c
8B
8A
=6
4G
8E
8G}
{8c
8E
=7
8G
8A
4G
8F
8D
=8
2C}
==
!!!AGN: Liebes - Lied, Verzeihung
!!!ONB: ESAC (Essen Associative Code) Database: FINK
!!!AMT: simple triple
!!!AIN: vox
!!!EED: Helmut Schaffrath
!!!EEV: 1.0
*-
